!!!OTL: ALS JUNGFRAU LINNICH NOCH EIN KLEIN MAEDCHEN WAR
!!!ARE: Europa, Mitteleuropa, Deutschland, Herzogtum Berg
!!!SCT: Z0092
!!!YEM: Copyright 1995, estate of Helmut Schaffrath.
**kern
*ICvox
*Ivox
*M4/4
*k[b-]
*d:
{8cn
8fn
8g
=1
8a
8b-
2ccn
8b-
8b-
=2
16b-
16a
16g
16a
4fn
8r}
{8cn
8fn
8g
=3
8a
8b-
2ccn
8b-
8b-
=4
16b-
16a
16g
16a
4fn
8r}
{8a
8d
8e
=5
8fn
8g
2a
4g
=6
16fn
16g
16e
16fn
4d
8r}
{8a
8d
8e
=7
8fn
8g
2a
4g
=8
16fn
16g
16e
16fn
4d
8r}
==
!!!AGN: Sagen - Lied, Romanze, Tod
!!!ONB: ESAC (Essen Associative Code) Database: ZUCCAL
!!!AMT: simple quadruple
!!!AIN: vox
!!!EED: Helmut Schaffrath
!!!EEV: 1.0
*-
